!!!ONM: Child Ballad No. 44, Tune No. 1
!!!PPG: p. 350
!!!AMT: irregular
**kern
*M6/8
*C:
{8g
=1
4cc
8cc
8dd
8dd
8b
=2
4.cc
4g
8e
=3
4f
8d
8g
4g
=4
[2.c
4c]}
!! Second phrase:
{8g
=5
4cc
8b
8dd
8dd
8b
=6
2.cc
4g
8e
=7
4f
8d
8g
4g
=8
[4.c
4c]}
!! Third phrase:
{8g
=9
4cc
8b
4a
8g
=10
4f
8e
4d
8c
=11
4.g
4.g
=12
4.c}
!! Fourth phrase:
{4e
8f
=13
4.g
4a
8a
=14
[4.d
4d]}
!! Fifth phrase:
{8g
=15
8g
8g
8g
4g
8g
=16
4a
8g
4g
8g
=17
4cc
8cc
4dd
8b
=18
[4.cc
4cc]}
!! Sixth phrase:
{8g
=19
4cc
8b
4dd
8b
=20
4.cc}
!! Seventh phrase:
{4e
8f
=21
*M9/8
4g
8e
4.c
4f
8g
=22
*M6/8
8a
8a
8g
4a
8f
=23
[4.d
4d]}
!! Eighth phrase:
{16e
16f
=24
4g
16e
16e
4g
8e
=25
4g
8e
4g
8e
=26
4g
8e
4g
8e
=27
4.cc
4.ee
=28
[4.cc
4cc]}
!! Ninth phrase:
{8c
=29
*M9/8
4f
8g
4.a
4.g
=30
*M6/8
[4.c
4c]}
!! Tenth phrase:
{8g
=31
4cc
8b
4dd
8b
=32
[4.cc
4cc]}
!! Eleventh phrase:
{8g
=33
4cc
8b
4dd
8b
=34
[4.cc
4cc]}
!! Twelfth phrase:
{8g
=35
4cc
8b
4a
8g
=36
4f
8e
4d
8c
=37
4g
8g
4g
8g
=38
[4.c
4c]}
!! Thirteenth phrase:
{8g
=39
4cc
8b
4a
8g
=40
4f
8e
4d
8c
=41
4.g
4.g
=42
4.c}
!! Fourteenth phrase:
{4e
8f
=43
4.g
4a
8a
=44
[4.d
4d]}
!! Fifteenth phrase:
{8g
=45
8g
8g
8g
4g
8g
=46
4a
8g
4g
8g
=47
4cc
8cc
4dd
8b
=48
[4.cc
4cc]}
!! Sixteenth phrase:
{8g
=49
4cc
8b
4dd
8b
=50
4.cc
4e
8f
=51
*M9/8
4g
8e
4.c
4f
8g
=52
*M6/8
8a
8a
8g
4a
8f
=53
[4.d
4d]}
!! Seventeenth phrase:
{16e
16f
=54
4g
16e
16e
4g
8e
=55
4g
8e
4g
8e
=56
4g
8e
4g
8e
=57
4.cc
4.ee
=58
[4.cc
4cc]}
!! Eighteenth phrase:
{8c
=59
*M9/8
4f
8g
4.a
4.g
=60
*M6/8
[4.c
4c]}
==
*-
!!!YOR: The traditional tunes of the Child ballads
!!!OVM: Vol. 1
!!!PPE: Bronson, Bertrand H.
!!!PSR: Princeton University Press
!!!PSP: Princeton, New Jersey 
!!!PSD: 1959/// 
!!!ENC: Huron, David
!!!EMD: Paul von Hippel turned freeform comments into reference records (1998/10/27/)
!!!EEV: Version 1.1
